X: 1
T: Vals efter Johan Petter Ragvals, \"Overmark
R: waltz
M: 3/4
L: 1/8
Z: 2008 John Chambers <jc:trillian.mit.edu>
F: http://www.spelmansforbundet.fi/musik/ovriga_latar/
K: A
Ac \
| e2 e2 ce | a2 g2 a2 | fd fa ga | e4 e2 | [B2E2] Bc de | f2 fg ed \
|1 c2 d2 Bd | c2 A2 :|
|[2 c2 d2 BG | A4 :: Ac \
| e2 ef ed | cd cB Ac | E2 EF GB | A2 AB cd | A4 :|
